X: 7
T: Condon's Frolics
R: jig
M: 6/8
L: 1/8
K: Ador
|eAB c2d|edc BAG|eAB c2d|e2d eag|
eAB c2d|edc B3|GB/c/d gdB|A3 ABd|
eAB c2d|edc Bcd|eAB c2d|e2d eag|
eAB c2d|edc B3|GB/c/d gdB|A3 A2d||
|:eaa efg|dec BAG|cBc dB/c/d|e2d efg|
eaa efg|dec B3|GB/c/d gdB|1A3 A2d:|2A3 ABd|


Tune 1244	Setting 14546

